X:416
T:Wooden whale
R:Reel
O:Scotland
C:Alisdair Fraser
S:SF Scottish Fiddlers handout
Z:Transcription, chords:Mike Long
M:C|
L:1/8
K:D
"Bm"{e}f2 ef Bf{a}fe|faef afec|"A"e2 ce Aece|\
"F#m"f/g/a ec "A"fecA|"Bm"{e}f2 ef Bf{a}fe|
"Bm"faef afec|\
"A"fecB "F#m"ABce|[1 "A"faec "Bm"fB{d}Be:|[2 \
"A"faae "Bm"cf{d}BB|]
|:"Bm"{A}B3b afef|Bf{a}fe faef|"A"e2ce Aece|\
"F#m"f/g/a ec "A"fecA|
"Bm"{A}B3b afef|Bf{a}fe faef|"A"afec "F#m"ABce|\
[1 "A"faec "Bm"fB{d}BA:|[2 "A"faec "(Bm)"fB{d}B2|]
